X: 29217
T: New Five Cents
R: reel
M: 4/4
K: Dmajor
|:dB|"D" A2 F2 F2 dB|A2 F2 F2 dB|A2 F2 G2 F2|"A" E3 F E2 dB|
"D" A2 F2 F2 D2|"G" GFGA B2 BB|"A" ABcd egfe|"D" d2 dd d2:|
|:A2|"D" A2 f2 f2 e2|"G" d2 ed B2 dB|"D" A2 d2 f2 d2|"A" e3 f e4|
"D " A2 f2 f2 e2|"G" d2 ed B2 dB|"D" A2 F2 ED E2|D4 D2:|

